X:1
T:The Cuckoo's Nest
M:4/4
L:1/8
K:C
G-F| E2 DC e2 dc|B-GE-G A2G-F| ED EC B,2D-F| BB FF G2|G-F| EE DC e2 dc|\
B-G EG A2 AF|E-C ECB,-C DF| E2 C2 C2| G2| c2 c2c-e dc| B2 G2 G2G-A|\
 B2 BBB-d cB| A2 F2 F2|G-F|E-D ECc-ed-c|B-G EG A2 GF| EE DC B,C DF|\
 E2 C2 C2||

